X:1
T:Jamie Foyer
M:4/4
L:1/4
K:C
 z2 z A| A- B c A| A- G E D| E- A A3/2 A/2| A3 A| A- B c A| A- G E- A|\
 G- F E D| E2 G- E| D2 D E| F F- E D| G2 G G| A3 G| A- d c d| A2 D D|\
 E2 D3/2 D/2| D3 z|
